X:73
T: Andreas - Hofer - Lied
N: D0077
O: Europa, Mitteleuropa, Oesterreich, Steiermark
N: Inzipit = Variante zum Lied
R: historisches Lied
M: 2/2
L: 1/8
K: C
G4 | E2E2E2E2 | E4z2
G2 | A3GF2E2 | E2D2z2
G2 | E2E2E2E2 | E4z2
G2 | A3GF2E2 | E2D2z2
DE | G2DEF2DE | F4z2
EF | G2EFG2EF | G4z2
GF | E2E2c2A2 | G4z2
GF | E2EFG2GF | E4

@@@ Tune index: 2595
